X:1
T:Mein Sudentenmädchen
T:Mein Studentenmädchen
T:Dr. med. Ryke Geerd Hamer
T:Aus dem Buch "Mein Studentenmädchen"
C:Dr. med. Ryke Geerd Hamer
%%score ( 1 2 ) 3 4
L:1/8
M:6/8
K:E
V:1 treble nm="Klavier"
V:2 treble 
V:3 treble nm="Klavier"
V:4 bass nm="Klavier"
V:1
 B3 | e3 d2 c | B3 A2 G | F3 c3 | B6 | [Ge]3 [EB]2 [EG] | [EF]3 [CE]3 | [DF]6- | [DF]3 z2 [DF] | %9
w: 1.~Ich-|lie be ein|Mäd chen seit|zwan zig|Jahrn,|seit mich ihr|Mund ge|küßt:|* Seit|
 [DF]3 [EG]2 [FA] | [EB]3 [EA]2 [EG] | [DF]3 ([CE]2 [DF]) | [EG]3 [EA]2 [EG] | [EF]3 [EF]2 [EG] | %14
w: da mals wir|bei de Stu|den ten *|warn und die|blei ne Ka|
 [EA]3 [DG]2 [DF] | [EG]3 E2 [Ec] | (F3 A3) | [Ge]6 | [Gd]3 (E2 F) | ([GB]3 [EG]2 [FA]) | %20
w: pel le bei|Nacht uns ge|grüßt. *|Mäd|chen, mein *|Mäd * *|
 [GB]3 [DF]2 [EG] | [FA]3 [FA]2 [FA] | [FA]3 [DB]2 [FA] | [FA]3 [EG]2 [DF] | !fermata!E3 || %25
w: chen! und die|klei ne Ka|pel le bei-|Nacht uns ge|grüßt|
"_https://musescore.com/user/22418571/scores/5078415" [DFB] | %26
w: ge|
"^2. Ich liebe ein Mädchen seit zwangzig Jahrn\n   lieb sie noch täglich mehr\n   mit tagblauen Augen und nachtdunklen Haarn\n   und ich geh wie verzaubert im Traume seither\n              - Mädchen mein Mädchen -\n                und ich geh wie verzaubert im Traume seither !\n\n3. Ich liebe ein Mädchen, - seit zwangzig Jahrn\n   lacht mir der Himmel zu ! -\n   Du lächelst aus fünffach Gesichtern mich an,\n   die zum Pfand Du mir gabst: und es bist immer DU !\n             - Mädchen, mein Mädchen -\n               die zum Pfand Du mir gabst: und es bist immer Du !\n\n4. Ich lieb Dich, mein Mädchen, seit zwanzig Jahrn,\n   Mädchen, mein Herzgesell,\n   In Freude und Kummer, in Glück und Gefahrn:\n   Mein Studentenmädchen, mein Lebensquell !\n             - Mädchen, mein Mädchen -\n               mein Studentenmädchen, mein Mädchen, mein - Weib !\n\n5. Ich lieb Dich, mein Mädchen seit zwangzig Jahrn,\n   seit mich Dein Mund geküßt,\n   seit damals wir beide Studenten warn\n   und die kleine Kapelle bei Nacht uns gegrüßt !\n             - Mädchen, mein Mädchen -\n               Seit die kleine Kapelle bei Nacht uns gegrüßt !\n\n\n                                       Tübingen 1956 - 1976\n\n" !fermata![EGB]3 |] %27
w: grüßt|
V:2
 x3 | x6 | x6 | x6 | x6 | x6 | x6 | x6 | x6 | x6 | x6 | x6 | x6 | x6 | x6 | x6 | B6 | x6 | x3 c3 | %19
 x6 | x6 | x6 | x6 | x6 | x3 || x | x3 |] %27
V:3
 B3 | e3 d2 c | B3 A2 G | F3 c3 | B6 | B3 B2 B | c3 F3 | (F6 | B3) z2 A | A3 A2 A | G3 G2 G | %11
 A3 (A2 A) | B3 c2 B | c3 c2 c | c3 B2 B | B3 B2 e | d6 | (e3 B3) | B3 A3 | (e3 d2 c) | B3 B2 B | %21
 c3 c2 c | B3 B2 B | B3 B2 A | !fermata!G3 || B | !fermata!B3 |] %27
V:4
 B,3 | E3 D2 C | B,3 A,2 G, | F,3 C3 | B,6 | E,3 G,2 E, | A,,3 ^A,,3 | B,,6- | B,,3 z2 B,, | %9
 B,,3 B,,2 B,, | B,,3 B,,2 B,, | B,,3 (B,,2 B,,) | E,,3 E,2 E, | A,,3 A,,2 G,, | F,,3 B,,2 B,, | %15
 E,3 G,2 A, | B,6 | E,6 | G,3 A,3 | E,6 | E,3 A,2 G, | F,3 E,2 E, | D,3 B,,2 B,, | B,,3 B,,2 B,, | %24
 !fermata!E,3 || B,, | !fermata!E,3 |] %27

